X:1
T:My Song in the Night
T:My Song in the Night
T:Frederick Arthur Graves
T:Frederick Arthur Graves, 1894
T:Public Domain Courtesy of the Cyber Hymnal™
C:Frederick Arthur Graves
Z:Public Domain
Z:Courtesy of the Cyber Hymnal™
%%score ( 1 2 ) 3
L:1/8
Q:1/4=110
M:4/4
K:F
V:1 treble 
V:2 treble 
V:3 bass 
V:1
 [CF]2 | [FA]2 [FA][FA] [FA]2 [EG][CF] | [EG]2 [CF]>[DF] [CF]3 [FA] | %3
w: 1.~When|out on life’s o- cean, the|waves dash- ing high, While|
w: 2.~God’s|prom- ise is sure, and we’re|safe in His care, He’ll|
w: 3.~The|blood of the Sav- ior will|cleanse ev- ery one; O|
w: 4.~The|home o- ver there will be|soon our a- bode, Tho’|
 [Fc]2 [Fc]>[Fd] [Fc]2 [FA][CF] | [EG]2 [EG]>[FA] [EG]3 [CF] | [FA]2 [FA]>[FA] [FA]2 [EG][CF] | %6
w: wa- ters are trou- bled, and|no help is nigh, I’ll|sing E- be- ne- zer and|
w: help all His child- ren their|bur- dens to bear; To|Him let us look to be|
w: sin- ner, He’ll save you if|on- ly you’ll come; Ac-|cept of His mer- cy, your|
w: straight is the way oft- en-|times rough the road; But|Je- sus our guide is the|
 [Fd]2 [Fd][Ff] [Fc]3 [CF] | [FA]2 [FA][FA] [Fc]2 [FA][CF] | [EB]2 [EG]>[CE] !fermata![CF]2 || %9
w: watch for the light, “And|call to re- mem- brance my|song in the night.”|
w: kept in the right, “And|call to re- mem- brance our|song in the night.”|
w: way will be bright, Then|sing with the saved ones your|“song in the night.”|
w: way and the light, I|call to re- mem- brance my|song in the night.|
"^Refrain" [Fc]2 | [Fd]2 [Fd]>[Fd] [Fd]3 [Ff] | [Fc]2 [Fc]>[Fd] [Fc]3 F | %12
w: |||
w: |||
w: |||
w: |||
 [FA]2 [FA][FA] [Fc]2 [FA][CF] | [EB]2 [EG]>[CE] !fermata![CF]2 |] %14
w: ||
w: ||
w: ||
w: ||
V:2
 x2 | x8 | x8 | x8 | x8 | x8 | x8 | x8 | x6 || x2 | x8 | x7 F | x8 | x6 |] %14
V:3
 [F,A,]2 | [F,C]2 [F,C][F,C] [F,C]2 [F,B,][F,A,] | [C,B,]2 [F,A,]>[F,B,] [F,A,]3 [F,C] | %3
w: ~|~ ~ ~ ~ ~ ~|~ ~ ~ ~ ~|
 [F,A,]2 [F,A,]>[F,B,] [F,A,]2 [F,C][F,A,] | [C,C]2 [C,C]>[C,C] [C,C]3 [F,A,] | %5
w: ~ ~ ~ ~ ~ ~|~ ~ ~ ~ ~|
 [F,C]2 [F,C]>[F,C] [F,C]2 [F,B,][F,A,] | [B,,B,]2 [B,,B,][D,B,] [F,A,]3 [F,A,] | %7
w: ~ ~ ~ ~ ~ ~|~ ~ ~ ~ ~|
 [F,C]2 [F,C][F,C] [F,A,]2 [F,C][F,A,] | [C,G,]2 [C,B,]>[C,G,] !fermata![F,A,]2 || [F,A,]2 | %10
w: ~ ~ ~ ~ ~ ~|~ ~ ~ ~|“My|
 [B,,B,]2 [B,,B,]>[B,,B,] [B,,B,]3 [D,B,] | [F,A,]2 [F,A,]>[F,B,] [F,A,]3 [F,A,] | %12
w: song in the night, my|song in the night; I|
 [F,C]2 [F,C][F,C] [F,A,]2 [F,C][F,A,] | [C,G,]2 [C,B,]>[C,G,] !fermata![F,A,]2 |] %14
w: call to re- mem- brance my|song in the night.”|

